build/Karasa-Jaga/scalable/apps/empathy-symbolic.svg

<svg height="16" width="16" xmlns="http://www.w3.org/2000/svg"><g fill="#bebebe"><path d="m8.0859375.54882812a6.0403695 7.7661901 84.762524 0 0 -.7753906.0390625 6.0403695 7.7661901 84.762524 0 0 -7.18164065 6.72460938 6.0403695 7.7661901 84.762524 0 0 3.42382815 4.46875c-.4028332 1.26086-.8630186 2.475722-1.6875 3.574219 1.7912102-.729344 3.9163182-1.180993 5.1835937-2.710938a6.0403695 7.7661901 84.762524 0 0 1.3652344-.02539 6.0403695 7.7661901 84.762524 0 0 7.1816405-6.7246098 6.0403695 7.7661901 84.762524 0 0 -7.5097655-5.34570308zm.0136719 1.24804688a1.2489209 1.2489209 0 0 0 .0039062 0c1.660507-.0223975 3.2742444.4634336 4.3984374 1.2636719s1.750104 1.8668694 1.849609 2.9492187c.10543 1.1556476-.386814 2.4058798-1.484374 3.4335938-1.098154 1.0282676-2.794931 1.7691326-4.5664068 1.9316406-.396627.034518-.7955139.041402-1.1894531.021484a1.2489209 1.2489209 0 0 0 -1.0234375.451172c-.4032304.486809-1.0423625.824714-1.7421875 1.146485.0991954-.279104.3087147-.557314.3964844-.832032a1.2489209 1.2489209 0 0 0 -.6445313-1.503906c-1.6414809-.7972304-2.5991606-2.1215192-2.7246093-3.4589842-.1061299-1.1561682.3862222-2.4072793 1.484375-3.4355469 1.0977551-1.0278953 2.7936726-1.7687733 4.5644531-1.9316407.2257417-.0202043.4517794-.0325972.6777344-.0351562z"/><path d="m6.1644239 3.868726c-.346479 0-.6278386.3971078-.6278386.8632779v.8240381c0 .4661826.2813596.824038.6278386.824038.3464664 0 .6278385-.3578554.6278385-.824038v-.8240381c0-.4661701-.2813721-.8632779-.6278385-.8632779zm3.767031 0c-.3464789 0-.6278385.3971078-.6278385.8632779v.8240381c0 .4661826.2825148.824038.6278385.824038.3453231 0 .6278381-.3578554.6278381-.824038v-.8240381c0-.4661701-.281372-.8632779-.6278381-.8632779zm-5.6505466 2.7608445v1.0258128c0 .4528348.80622 2.0404756 3.7277912 2.0404756 3.1333035 0 3.8062705-1.4613699 3.8062705-2.0404756v-.9703245c-.594111 1.0095016-1.349715 1.6441333-3.8062705 1.6441333-2.5253172 0-3.1892815-.7859408-3.7277912-1.6996216z"/></g></svg>

<?xml version="1.0" encoding="UTF-8" standalone="no"?>
<!-- Created with Inkscape (http://www.inkscape.org/) -->

<svg
   xmlns:dc="http://purl.org/dc/elements/1.1/"
   xmlns:cc="http://creativecommons.org/ns#"
   xmlns:rdf="http://www.w3.org/1999/02/22-rdf-syntax-ns#"
   xmlns:svg="http://www.w3.org/2000/svg"
   xmlns="http://www.w3.org/2000/svg"
   xmlns:xlink="http://www.w3.org/1999/xlink"
   xmlns:sodipodi="http://sodipodi.sourceforge.net/DTD/sodipodi-0.dtd"
   xmlns:inkscape="http://www.inkscape.org/namespaces/inkscape"
   id="svg7384"
   height="16"
   width="16"
   version="1.1"
   inkscape:version="0.92.2 (unknown)"
   sodipodi:docname="empathy-symbolic.svg">
  <defs
     id="defs7527">
    <inkscape:perspective
       id="perspective18"
       inkscape:persp3d-origin="8 : 5.3333333 : 1"
       inkscape:vp_z="16 : 8 : 1"
       inkscape:vp_y="0 : 1000 : 0"
       inkscape:vp_x="0 : 8 : 1"
       sodipodi:type="inkscape:persp3d" />
    <linearGradient
       gradientUnits="userSpaceOnUse"
       y2="13.168831"
       x2="5.8043289"
       y1="4.7809148"
       x1="5.8043289"
       gradientTransform="scale(1.1952286,0.83666)"
       id="StandardGradient">
      <stop
         id="stop3389"
         offset="0"
         style="stop-color:#000000;stop-opacity:0.86274511;" />
      <stop
         id="stop3391"
         offset="1"
         style="stop-color:#000000;stop-opacity:0.47058824;" />
    </linearGradient>
    <inkscape:perspective
       sodipodi:type="inkscape:persp3d"
       inkscape:vp_x="0 : 0.5 : 1"
       inkscape:vp_y="0 : 1000 : 0"
       inkscape:vp_z="1 : 0.5 : 1"
       inkscape:persp3d-origin="0.5 : 0.33333333 : 1"
       id="perspective3648" />
    <linearGradient
       y2="13.168831"
       x2="5.8043289"
       y1="4.7809148"
       x1="5.8043289"
       gradientTransform="matrix(-1.1952286,0,0,0.83666,-25,0)"
       gradientUnits="userSpaceOnUse"
       id="linearGradient3627"
       xlink:href="#StandardGradient"
       inkscape:collect="always" />
    <clipPath
       id="clipPath3634"
       clipPathUnits="userSpaceOnUse">
      <path
         id="path3636"
         d="m -20,0 0,16 16,0 0,-16 -16,0 z m 2,4 5,3.34375 L -13,4 -8,7.34375 -8,4 -6,4 -6,12 -8,12 -8,8.65625 -13,12 -13,8.65625 -18,12 -18,4 z"
         style="fill:#ff00ff;fill-opacity:1;stroke:none;display:inline" />
    </clipPath>
    <linearGradient
       y2="13.168831"
       x2="5.8043289"
       y1="4.7809148"
       x1="5.8043289"
       gradientTransform="matrix(-1.1952286,0,0,0.83666,-5,0)"
       gradientUnits="userSpaceOnUse"
       id="linearGradient5025"
       xlink:href="#StandardGradient"
       inkscape:collect="always" />
    <clipPath
       id="clipPath40"
       clipPathUnits="userSpaceOnUse">
      <path
         id="path42"
         d="M 0,500 1024,500 1024,0 0,0 0,500 Z"
         inkscape:connector-curvature="0" />
    </clipPath>
    <clipPath
       id="clipPath18"
       clipPathUnits="userSpaceOnUse">
      <path
         id="path20"
         d="M 0,2743.88 0,0 l 2743.81,0 0,2743.88 -2743.81,0 z"
         inkscape:connector-curvature="0" />
    </clipPath>
  </defs>
  <sodipodi:namedview
     pagecolor="#ffffff"
     bordercolor="#666666"
     borderopacity="1"
     objecttolerance="10"
     gridtolerance="10"
     guidetolerance="10"
     inkscape:pageopacity="0"
     inkscape:pageshadow="2"
     inkscape:window-width="1366"
     inkscape:window-height="716"
     id="namedview7525"
     showgrid="false"
     inkscape:zoom="14.75"
     inkscape:cx="2.6715036"
     inkscape:cy="4.7878832"
     inkscape:window-x="0"
     inkscape:window-y="27"
     inkscape:window-maximized="1"
     inkscape:current-layer="svg7384" />
  <metadata
     id="metadata90">
    <rdf:RDF>
      <cc:Work
         rdf:about="">
        <dc:format>image/svg+xml</dc:format>
        <dc:type
           rdf:resource="http://purl.org/dc/dcmitype/StillImage" />
        <dc:title>Gnome Symbolic Icon Theme</dc:title>
      </cc:Work>
    </rdf:RDF>
  </metadata>
  <title
     id="title9167">Gnome Symbolic Icon Theme</title>
  <g
     id="g1162">
    <path
       id="path1144"
       d="M 8.0859375 0.54882812 A 6.0403695 7.7661901 84.762524 0 0 7.3105469 0.58789062 A 6.0403695 7.7661901 84.762524 0 0 0.12890625 7.3125 A 6.0403695 7.7661901 84.762524 0 0 3.5527344 11.78125 C 3.1499012 13.04211 2.6897158 14.256972 1.8652344 15.355469 C 3.6564446 14.626125 5.7815526 14.174476 7.0488281 12.644531 A 6.0403695 7.7661901 84.762524 0 0 8.4140625 12.619141 A 6.0403695 7.7661901 84.762524 0 0 15.595703 5.8945312 A 6.0403695 7.7661901 84.762524 0 0 8.0859375 0.54882812 z M 8.0996094 1.796875 A 1.2489209 1.2489209 0 0 0 8.1035156 1.796875 C 9.7640226 1.7744775 11.37776 2.2603086 12.501953 3.0605469 C 13.626146 3.8607852 14.252057 4.9274163 14.351562 6.0097656 C 14.456992 7.1654132 13.964748 8.4156454 12.867188 9.4433594 C 11.769034 10.471627 10.072257 11.212492 8.3007812 11.375 C 7.9041542 11.409518 7.5052673 11.416402 7.1113281 11.396484 A 1.2489209 1.2489209 0 0 0 6.0878906 11.847656 C 5.6846602 12.334465 5.0455281 12.67237 4.3457031 12.994141 C 4.4448985 12.715037 4.6544178 12.436827 4.7421875 12.162109 A 1.2489209 1.2489209 0 0 0 4.0976562 10.658203 C 2.4561753 9.8609726 1.4984956 8.5366838 1.3730469 7.1992188 C 1.266917 6.0430506 1.7592691 4.7919395 2.8574219 3.7636719 C 3.955177 2.7357766 5.6510945 1.9948986 7.421875 1.8320312 C 7.6476167 1.8118269 7.8736544 1.799434 8.0996094 1.796875 z "
       style="opacity:1;fill:#bebebe;fill-opacity:1;stroke:none;stroke-width:1.13090551" />
    <path
       style="display:inline;fill:#bebebe;fill-opacity:1;stroke:none;stroke-width:1.25567698"
       sodipodi:nodetypes="ssssssssssassscssscsc"
       id="rect12460"
       d="m 6.1644239,3.868726 c -0.346479,0 -0.6278386,0.3971078 -0.6278386,0.8632779 V 5.556042 c 0,0.4661826 0.2813596,0.824038 0.6278386,0.824038 0.3464664,0 0.6278385,-0.3578554 0.6278385,-0.824038 V 4.7320039 c 0,-0.4661701 -0.2813721,-0.8632779 -0.6278385,-0.8632779 z m 3.767031,0 c -0.3464789,0 -0.6278385,0.3971078 -0.6278385,0.8632779 V 5.556042 c 0,0.4661826 0.2825148,0.824038 0.6278385,0.824038 0.3453231,0 0.6278381,-0.3578554 0.6278381,-0.824038 V 4.7320039 c 0,-0.4661701 -0.281372,-0.8632779 -0.6278381,-0.8632779 z M 4.2809083,6.6295705 v 1.0258128 c 0,0.4528348 0.80622,2.0404756 3.7277912,2.0404756 3.1333035,0 3.8062705,-1.4613699 3.8062705,-2.0404756 V 6.6850588 c -0.594111,1.0095016 -1.349715,1.6441333 -3.8062705,1.6441333 -2.5253172,0 -3.1892815,-0.7859408 -3.7277912,-1.6996216 z"
       inkscape:connector-curvature="0" />
  </g>
</svg>
